symbols/web/camera_indoor/materialsymbolssharp/camera_indoor_wght700gradN25_24px.svg

<svg xmlns="http://www.w3.org/2000/svg" height="24" width="24"><path d="M8.1 16.9h5.85v-1.975l1.95 1.025V12l-1.95 1.025V11.05H8.1Zm-4.725 4.725V8.675L12 2.175l8.625 6.5v12.95ZM6.4 18.6h11.2v-8.425l-5.6-4.2-5.6 4.2Zm5.6-6.3Z"/></svg>

<svg xmlns="http://www.w3.org/2000/svg" height="24" width="24"><path d="M8.1 16.9H13.95V14.925L15.9 15.95V12L13.95 13.025V11.05H8.1ZM3.375 21.625V8.675L12 2.175L20.625 8.675V21.625ZM6.4 18.6H17.6V10.175L12 5.975L6.4 10.175ZM12 12.3Z"/></svg>
